X:73
T:Pierre's Right Arm
C:Brian Pickell
D:Brian Pickell:Fresh Canadian Fiddle Tunes
R:reel
M:4/4
L:1/8
Z:Robin Beech robin.beech@mcgill.ca
K:G
d3A c>AG>A |: F>DD>D C>DD>D | F>DD>D B,>DG>D |
F>DD>D C>DB,>D |  A,>Ad>A c>AG>A | F>DD>D C>DD>D |
F>DD>D B,>DG>A | B>dc>A G>FD>C
|1 D>Ad>A c>AG>A :|2 D>Ad>A c>de>d |
K:Amin
|: c>AG>A c>AG>A | F>DD>E F4 | G4 A4- |
A2 d>f a>fd>c | g>ec>A d>ef>e | d>cA>c d4 |
d>cA>G F>DD>C |1 D>Ad>A c>de>d :|2 D2 d>A c>AG>A |
